dist/assets/img/advantages/shield 2b.svg

<svg width="44" height="44" viewBox="0 0 44 44" fill="none" xmlns="http://www.w3.org/2000/svg">
<path d="M22 0C12.4353 0 4.65381 7.78138 4.65381 17.3461C4.65381 23.307 7.6764 28.5749 12.2692 31.6986V42.7307C12.2692 43.1614 12.4875 43.5627 12.8492 43.7965C13.2108 44.0303 13.6664 44.0647 14.0592 43.8881L22 40.3149L29.9407 43.8882C30.107 43.963 30.2844 44 30.4614 44C30.7023 44 30.9421 43.9314 31.1507 43.7966C31.5123 43.5627 31.7307 43.1614 31.7307 42.7308V31.6987C36.3235 28.575 39.3461 23.3071 39.3461 17.3462C39.3461 7.78138 31.5646 0 22 0ZM29.1922 40.7679L22.5207 37.7658C22.3551 37.6912 22.1775 37.6539 22 37.6539C21.8224 37.6539 21.6448 37.6911 21.4792 37.7657L14.8077 40.7678V33.1335C15.4456 33.4244 16.1003 33.6743 16.7675 33.8851C16.8053 33.8971 16.843 33.9094 16.881 33.9211C16.9662 33.9473 17.0516 33.9726 17.1371 33.9974C17.2004 34.016 17.2638 34.0343 17.3273 34.0522C17.3963 34.0715 17.4655 34.0901 17.5348 34.1085C17.6156 34.1301 17.6965 34.1511 17.7778 34.1716C17.8352 34.1859 17.8927 34.2 17.9502 34.2137C18.0436 34.2361 18.1373 34.2578 18.2313 34.2787C18.2801 34.2895 18.3289 34.3002 18.3777 34.3106C18.4806 34.3326 18.5839 34.3534 18.6877 34.3736C18.7299 34.3818 18.7721 34.3901 18.8143 34.398C18.9242 34.4185 19.0344 34.4376 19.1449 34.456C19.1828 34.4624 19.2207 34.4689 19.2587 34.4749C19.3728 34.4932 19.4873 34.5099 19.6022 34.5258C19.6378 34.5307 19.6733 34.536 19.7089 34.5408C19.8251 34.5562 19.9419 34.57 20.0588 34.5831C20.0937 34.5869 20.1284 34.5913 20.1633 34.5951C20.2799 34.6075 20.397 34.618 20.5143 34.628C20.5498 34.631 20.5852 34.6347 20.6209 34.6375C20.7365 34.6466 20.8526 34.6539 20.9689 34.6607C21.0062 34.663 21.0433 34.6659 21.0808 34.6679C21.1982 34.6741 21.3161 34.6783 21.4342 34.6821C21.4698 34.6833 21.5051 34.6851 21.5407 34.6861C21.6933 34.69 21.8465 34.6923 22.0001 34.6923C22.1537 34.6923 22.3068 34.69 22.4595 34.6861C22.495 34.6851 22.5304 34.6833 22.5659 34.6821C22.684 34.6783 22.8019 34.674 22.9194 34.6679C22.9567 34.6659 22.9939 34.663 23.0313 34.6607C23.1476 34.6539 23.2637 34.6466 23.3792 34.6375C23.4149 34.6347 23.4503 34.631 23.4859 34.628C23.6032 34.618 23.7202 34.6074 23.8369 34.5951C23.8718 34.5914 23.9065 34.587 23.9414 34.5831C24.0583 34.5699 24.175 34.5562 24.2913 34.5408C24.327 34.536 24.3624 34.5308 24.3979 34.5258C24.5128 34.5099 24.6273 34.4932 24.7414 34.4749C24.7794 34.4688 24.8172 34.4623 24.8552 34.456C24.9657 34.4376 25.076 34.4185 25.1858 34.398C25.2281 34.3901 25.2703 34.3819 25.3125 34.3736C25.4161 34.3535 25.5194 34.3325 25.6225 34.3106C25.6714 34.3002 25.7201 34.2895 25.7688 34.2787C25.8628 34.2578 25.9565 34.2361 26.0499 34.2137C26.1074 34.1999 26.1649 34.1859 26.2224 34.1716C26.3036 34.1512 26.3845 34.1302 26.4653 34.1085C26.5346 34.09 26.6039 34.0716 26.6729 34.0522C26.7364 34.0343 26.7998 34.016 26.8631 33.9974C26.9486 33.9725 27.0341 33.9473 27.1192 33.9211C27.1571 33.9093 27.1949 33.897 27.2327 33.8851C27.8998 33.6743 28.5546 33.4244 29.1925 33.1336V40.7679H29.1922ZM26.8321 31.3435C26.7815 31.3609 26.7309 31.3784 26.6801 31.3954C26.6029 31.4212 26.5254 31.4465 26.4476 31.471C26.3572 31.4994 26.2664 31.5269 26.1754 31.5535C26.1112 31.5724 26.0469 31.5912 25.9824 31.6093C25.862 31.6429 25.7412 31.675 25.6199 31.7055C25.5747 31.717 25.5293 31.7278 25.484 31.7388C25.3653 31.7675 25.2462 31.7948 25.1267 31.8206C25.0966 31.8271 25.0668 31.834 25.0367 31.8402C24.8826 31.8724 24.7279 31.9024 24.5726 31.9296C24.5568 31.9324 24.5409 31.9348 24.525 31.9376C24.3851 31.9618 24.2447 31.9837 24.1041 32.0037C24.0724 32.0083 24.0407 32.0127 24.0088 32.0171C23.8589 32.0375 23.7086 32.0562 23.5579 32.072C23.5522 32.0726 23.5466 32.0734 23.5409 32.074C23.3831 32.0904 23.2247 32.1039 23.0662 32.1152C23.0318 32.1177 22.9973 32.1195 22.9628 32.1218C22.8395 32.1298 22.7162 32.1361 22.5925 32.1411C22.5505 32.1428 22.5084 32.1445 22.4664 32.1459C22.3111 32.1506 22.1557 32.1539 22 32.1539C21.8442 32.1539 21.6888 32.1507 21.5335 32.1457C21.4914 32.1444 21.4493 32.1426 21.4074 32.1409C21.2837 32.136 21.1604 32.1296 21.0371 32.1216C21.0026 32.1194 20.9682 32.1175 20.9337 32.115C20.7752 32.1037 20.6169 32.0902 20.459 32.0739C20.4533 32.0732 20.4477 32.0725 20.442 32.0719C20.2913 32.0561 20.141 32.0373 19.9911 32.017C19.9594 32.0127 19.9277 32.0082 19.8959 32.0036C19.7552 31.9834 19.6148 31.9616 19.4749 31.9375C19.4591 31.9348 19.4432 31.9323 19.4273 31.9295C19.272 31.9022 19.1173 31.8722 18.9632 31.84C18.9332 31.8337 18.9033 31.8268 18.8732 31.8204C18.7537 31.7947 18.6345 31.7673 18.5159 31.7386C18.4705 31.7276 18.4251 31.7168 18.38 31.7054C18.2587 31.6749 18.1379 31.6426 18.0175 31.6091C17.953 31.5911 17.8887 31.5722 17.8245 31.5533C17.7336 31.5266 17.6427 31.4993 17.5522 31.4708C17.4744 31.4462 17.397 31.421 17.3197 31.3952C17.2688 31.3783 17.2182 31.3607 17.1677 31.3433C11.3683 29.3357 7.19223 23.8197 7.19223 17.3461C7.19223 9.18122 13.8349 2.53842 22 2.53842C30.165 2.53842 36.8077 9.18113 36.8077 17.3461C36.8077 23.8197 32.6315 29.3357 26.8321 31.3435Z" fill="#051223"/>
<path d="M29.5302 17.3458L31.9142 12.8651C32.1199 12.4786 32.1118 12.0134 31.8929 11.6343C31.674 11.2553 31.2752 11.0156 30.8377 11.0005L25.7652 10.8247L23.0767 6.51977C22.8448 6.14852 22.438 5.92285 22.0002 5.92285C21.5624 5.92285 21.1556 6.14852 20.9237 6.51977L18.2353 10.8247L13.1628 11.0005C12.7253 11.0156 12.3265 11.2553 12.1076 11.6343C11.8887 12.0134 11.8805 12.4786 12.0863 12.8651L14.4703 17.3458L12.0863 21.8266C11.8805 22.2131 11.8887 22.6783 12.1076 23.0573C12.3265 23.4364 12.7253 23.6761 13.1628 23.6912L18.2353 23.8669L20.9237 28.1719C21.1555 28.5431 21.5624 28.7688 22.0002 28.7688C22.438 28.7688 22.8448 28.5431 23.0767 28.1719L25.7651 23.8669L30.8376 23.6912C31.2751 23.6761 31.6739 23.4364 31.8928 23.0573C32.1117 22.6783 32.1199 22.2131 31.9141 21.8266L29.5302 17.3458ZM25.0024 21.3534C24.5806 21.368 24.1934 21.5915 23.9699 21.9496L22.0002 25.1036L20.0306 21.9497C19.807 21.5916 19.4199 21.3681 18.998 21.3534L15.2819 21.2246L17.0284 17.942C17.2268 17.5693 17.2268 17.1224 17.0284 16.7497L15.2819 13.467L18.998 13.3382C19.4199 13.3236 19.8071 13.1001 20.0306 12.742L22.0002 9.58817L23.9698 12.7421C24.1934 13.1002 24.5805 13.3236 25.0023 13.3383L28.7184 13.4671L26.9719 16.7498C26.7737 17.1225 26.7737 17.5694 26.972 17.9421L28.7185 21.2247L25.0024 21.3534Z" fill="#051223"/>
</svg>

<svg width="44" height="44" fill="none" xmlns="http://www.w3.org/2000/svg"><path d="M22 0C12.435 0 4.654 7.781 4.654 17.346c0 5.961 3.022 11.229 7.615 14.353V42.73a1.269 1.269 0 001.79 1.157L22 40.315l7.94 3.573a1.268 1.268 0 001.79-1.157V31.699c4.594-3.124 7.616-8.392 7.616-14.353C39.346 7.781 31.565 0 22 0zm7.192 40.768l-6.671-3.002a1.268 1.268 0 00-1.042 0l-6.671 3.002v-7.635a17.21 17.21 0 001.96.752l.113.036a16.676 16.676 0 00.654.188 17.65 17.65 0 001.153.265l.126.024c.11.02.22.04.33.058l.115.019c.114.018.228.035.343.05l.107.016c.116.015.233.029.35.042l.104.012c.117.013.234.023.351.033l.107.01c.116.009.232.016.348.023l.112.007c.117.006.235.01.353.014l.107.004a17.982 17.982 0 00.918 0c.036 0 .071-.003.107-.004.118-.004.236-.008.353-.014l.112-.007c.117-.007.233-.014.348-.023l.107-.01c.117-.01.234-.02.35-.033l.105-.012c.117-.013.234-.027.35-.042l.107-.015c.115-.016.23-.033.343-.051l.114-.019a17.153 17.153 0 001.61-.348 17.939 17.939 0 00.654-.187l.114-.036a17.09 17.09 0 001.96-.751v7.634zm-2.36-9.425l-.152.052a14.013 14.013 0 01-1.06.31l-.136.034c-.119.028-.238.056-.357.082l-.09.02c-.154.031-.31.061-.464.089l-.048.008a14.212 14.212 0 01-.967.134l-.017.002c-.158.016-.316.03-.475.041l-.103.007a15.193 15.193 0 01-1.43.024l-.126-.005a14.706 14.706 0 01-.37-.02l-.103-.006a15.037 15.037 0 01-.475-.041l-.017-.002a15.07 15.07 0 01-.967-.135l-.048-.008a14.78 14.78 0 01-.464-.089l-.09-.02a14.33 14.33 0 01-.357-.081l-.136-.034a14.98 14.98 0 01-1.06-.31l-.152-.052c-5.8-2.007-9.976-7.523-9.976-13.997C7.192 9.181 13.835 2.538 22 2.538s14.808 6.643 14.808 14.808c0 6.474-4.176 11.99-9.976 13.997z" fill="#051223"/><path d="M29.53 17.346l2.384-4.48A1.27 1.27 0 0030.838 11l-5.073-.176-2.688-4.305a1.27 1.27 0 00-2.153 0l-2.689 4.305-5.072.176a1.27 1.27 0 00-1.077 1.864l2.384 4.48-2.384 4.482a1.269 1.269 0 001.077 1.864l5.072.176 2.689 4.305a1.27 1.27 0 002.153 0l2.688-4.305 5.073-.176a1.27 1.27 0 001.076-1.864l-2.384-4.481zm-4.528 4.007a1.269 1.269 0 00-1.032.597L22 25.104l-1.97-3.154a1.27 1.27 0 00-1.032-.597l-3.716-.128 1.746-3.283c.199-.373.199-.82 0-1.192l-1.746-3.283 3.716-.129a1.27 1.27 0 001.033-.596L22 9.588l1.969 3.154c.223.358.61.582 1.032.596l3.716.13-1.746 3.282a1.27 1.27 0 000 1.192l1.746 3.283-3.716.128z" fill="#051223"/></svg>
